public/static/images/add-user.svg

<?xml version="1.0" encoding="UTF-8" standalone="no"?>
<svg width="42px" height="42px" viewBox="0 0 42 42" version="1.1" xmlns="http://www.w3.org/2000/svg" xmlns:xlink="http://www.w3.org/1999/xlink">
    <!-- Generator: sketchtool 39.1 (31720) - http://www.bohemiancoding.com/sketch -->
    <title>C6CB1051-C835-4B34-99D2-C69D553F38D1</title>
    <desc>Created with sketchtool.</desc>
    <defs></defs>
    <g id="Page-1" stroke="none" stroke-width="1" fill="none" fill-rule="evenodd">
        <g id="Editable-Version" transform="translate(-1475.000000, -1688.000000)">
            <g id="::-add-user" transform="translate(1476.000000, 1689.000000)">
                <circle id="Oval-179" stroke="#FFFFFF" stroke-width="2" cx="20" cy="20" r="20"></circle>
                <path d="M3.9950191,33.0724638 C5.28091042,31.6517681 8.35672981,30.0694638 10.9270549,29.1342029 L13.7052331,31.600942 C14.1407628,31.9877681 14.7806476,31.9877681 15.2161773,31.600942 L17.9943555,29.1342029 C20.5646806,30.0694638 23.6405,31.6517681 24.9263913,33.0724638 L3.9950191,33.0724638 Z M16.6353478,26.8345507 L14,29.0754638 L11.3649565,26.8345507 C11.0447826,26.5621594 10.6068261,26.4738986 10.2063043,26.6023333 C9.18894599,26.926798 5.74951246,28.1001547 3.14206913,29.8904696 C1.38134631,31.0994118 4.89185396,35.5072464 6.72908529,35.5072464 C13.4135931,35.5072464 26.7826087,35.5072464 26.7826087,35.5072464 C27.454913,35.5072464 28,34.9621594 28,34.2898551 C28,30.0718986 19.4980435,27.1458986 17.794,26.6023333 C17.3934783,26.4738986 16.9555217,26.5621594 16.6353478,26.8345507 Z M14,11.7681159 C17.1761739,11.7681159 19.760087,14.3681594 19.760087,17.5644203 C19.760087,20.7612899 17.1761739,23.361942 14,23.361942 C10.8241304,23.361942 8.24021739,20.7612899 8.24021739,17.5644203 C8.24021739,14.3681594 10.8241304,11.7681159 14,11.7681159 L14,11.7681159 Z M30.6666667,20 L30.6666667,17.3293735 C30.6666667,16.6040484 30.069713,16 29.3333333,16 C28.5918198,16 28,16.5951808 28,17.3293735 L28,20 L25.3293735,20 C24.6040484,20 24,20.5969537 24,21.3333333 C24,22.0748469 24.5951808,22.6666667 25.3293735,22.6666667 L28,22.6666667 L28,25.3372931 C28,26.0626183 28.5969537,26.6666667 29.3333333,26.6666667 C30.0748469,26.6666667 30.6666667,26.0714859 30.6666667,25.3372931 L30.6666667,22.6666667 L33.3372931,22.6666667 C34.0626183,22.6666667 34.6666667,22.069713 34.6666667,21.3333333 C34.6666667,20.5918198 34.0714859,20 33.3372931,20 L30.6666667,20 Z M14,25.7967246 C18.5186522,25.7967246 22.1948696,22.1037681 22.1948696,17.5644203 C22.1948696,13.0256812 18.5186522,9.33333333 14,9.33333333 C9.48165217,9.33333333 5.80543478,13.0256812 5.80543478,17.5644203 C5.80543478,22.1037681 9.48165217,25.7967246 14,25.7967246 Z" id="add-contributor" fill="#FFFFFF"></path>
            </g>
        </g>
    </g>
</svg>

<svg width="42" height="42" xmlns="http://www.w3.org/2000/svg" aria-labelledby="adduser" role="presentation">
    <title id="adduser">Add a User</title>
    <g transform="translate(1 1)" fill="none" fill-rule="evenodd">
        <circle stroke="#FFF" stroke-width="2" cx="20" cy="20" r="20"/>
        <path d="M3.995 33.072c1.286-1.42 4.362-3.003 6.932-3.938l2.778 2.467a1.129 1.129 0 001.511 0l2.778-2.467c2.57.935 5.646 2.518 6.932 3.938H3.995zm12.64-6.237L14 29.075l-2.635-2.24a1.215 1.215 0 00-1.159-.233C9.19 26.927 5.75 28.1 3.142 29.89c-1.76 1.21 1.75 5.617 3.587 5.617h20.054c.672 0 1.217-.545 1.217-1.217 0-4.218-8.502-7.144-10.206-7.688-.4-.128-.838-.04-1.159.233zM14 11.768c3.176 0 5.76 2.6 5.76 5.796 0 3.197-2.584 5.798-5.76 5.798-3.176 0-5.76-2.6-5.76-5.798 0-3.196 2.584-5.796 5.76-5.796zM30.667 20v-2.67c0-.726-.597-1.33-1.334-1.33-.741 0-1.333.595-1.333 1.33V20h-2.67c-.726 0-1.33.597-1.33 1.333 0 .742.595 1.334 1.33 1.334H28v2.67c0 .726.597 1.33 1.333 1.33.742 0 1.334-.596 1.334-1.33v-2.67h2.67c.726 0 1.33-.597 1.33-1.334 0-.741-.596-1.333-1.33-1.333h-2.67zM14 25.797c4.519 0 8.195-3.693 8.195-8.233 0-4.538-3.676-8.23-8.195-8.23-4.518 0-8.195 3.692-8.195 8.23 0 4.54 3.677 8.233 8.195 8.233z" fill="#FFF"/>
    </g>
</svg>
